X:6
T:2025-3-28
T:D'Accord!
M:4/4
L:1/8
K:G
%% Aim for Scottische
GBgd B2 B2 | ABcB A2 z2 | DEFG ABcd | e2 d2 g2 B2 |
GBgd B2 B2 | ABcd e2 d2 | DEFG ABcd | e2 f2 g4 |
d2 d2 Bd G2 | d2 d2 Bd A2 | AB c2 Bc d2 | e2 d2 gd  B2 |
d2 d2 Bd G2 | d2 d2 Bd A2 | AB c2 Bc d2 | cdef g4 :|

